32x32/apps/compton.svg

<svg xmlns="http://www.w3.org/2000/svg" width="32" height="32" version="1">
 <path style="opacity:0.2" d="M 15.400391,3 C 14.070791,3 13,4.2265 13,5.75 V 6.4199219 C 11.246536,6.9162232 9.6438452,7.840388 8.3359375,9.109375 L 7.7578125,8.7773438 C 6.4384235,8.0155936 4.8405813,8.3290014 4.1757812,9.4804688 L 3.5761719,10.519531 c -0.6648,1.151468 -0.1377484,2.691375 1.1816406,3.453125 L 5.3476562,14.3125 C 5.121446,15.19058 5.0046747,16.093262 5,17 c 0.00324,0.90723 0.1186975,1.810574 0.34375,2.689453 l -0.5859375,0.337891 c -1.3193897,0.76175 -1.8464406,2.301658 -1.1816406,3.453125 l 0.5996093,1.039062 c 0.6648,1.151467 2.2626416,1.464875 3.5820313,0.703125 L 8.3457031,24.882812 C 9.6532946,26.155262 11.254914,27.074201 13,27.572266 V 28.25 c 0,1.5235 1.070791,2.75 2.400391,2.75 h 1.199218 C 17.929209,31 19,29.7735 19,28.25 v -0.679688 c 1.748487,-0.492778 3.3524,-1.410971 4.664062,-2.679687 l 0.578126,0.332031 c 1.319388,0.76175 2.917231,0.448342 3.582031,-0.703125 l 0.599609,-1.039062 c 0.6648,-1.151467 0.137749,-2.691375 -1.18164,-3.453125 L 26.652344,19.6875 C 26.878554,18.80942 26.995325,17.906738 27,17 26.9968,16.09277 26.881303,15.189426 26.65625,14.310547 l 0.585938,-0.337891 c 1.319389,-0.76175 1.84644,-2.301657 1.18164,-3.453125 L 27.824219,9.4804688 C 27.159419,8.3290009 25.561576,8.0155935 24.242188,8.7773438 L 23.654297,9.1171875 C 22.349156,7.8495892 20.749976,6.925514 19,6.4277344 V 5.75 C 19,4.2265 17.929209,3 16.599609,3 Z"/>
 <path style="fill:#36c9cc" d="M 15.400391,2 C 14.070791,2 13,3.2265 13,4.75 V 5.4199219 A 11,11 0 0 0 8.3359375,8.109375 L 7.7578125,7.7773438 C 6.4384235,7.0155937 4.8405813,7.3290014 4.1757812,8.4804688 L 3.5761719,9.5195312 c -0.6648,1.1514678 -0.1377484,2.6913748 1.1816406,3.4531248 L 5.3476562,13.3125 A 11,11 0 0 0 5,16 11,11 0 0 0 5.34375,18.689453 l -0.5859375,0.337891 c -1.3193897,0.76175 -1.8464406,2.301658 -1.1816406,3.453125 l 0.5996093,1.039062 c 0.6648,1.151467 2.2626416,1.464875 3.5820313,0.703125 L 8.3457031,23.882812 A 11,11 0 0 0 13,26.574219 V 27.25 c 0,1.5235 1.070791,2.75 2.400391,2.75 h 1.199218 C 17.929209,30 19,28.7735 19,27.25 v -0.689453 a 11,11 0 0 0 4.664062,-2.669922 l 0.578126,0.332031 c 1.319388,0.76175 2.917231,0.448342 3.582031,-0.703125 l 0.599609,-1.039062 c 0.6648,-1.151467 0.137749,-2.691375 -1.18164,-3.453125 L 26.652344,18.6875 A 11,11 0 0 0 27,16 11,11 0 0 0 26.65625,13.310547 l 0.585938,-0.337891 c 1.319389,-0.76175 1.84644,-2.301657 1.18164,-3.4531248 L 27.824219,8.4804688 C 27.159419,7.329001 25.561576,7.0155934 24.242188,7.7773438 L 23.654297,8.1171875 A 11,11 0 0 0 19,5.4277344 V 4.75 C 19,3.2265 17.929209,2 16.599609,2 Z"/>
 <path style="opacity:0.2;fill:#f4f4f7" d="M 15.400391,2 C 14.070791,2 13,3.2265 13,4.75 V 5.4199219 A 11,11 0 0 0 8.3359375,8.109375 L 7.7578125,7.7773438 C 6.4384235,7.0155937 4.8405813,7.3290014 4.1757812,8.4804688 L 3.5761719,9.5195312 C 3.2933885,10.009327 3.2377019,10.5688 3.3554688,11.109375 3.4022369,10.906231 3.4678775,10.707103 3.5761719,10.519531 L 4.1757812,9.4804688 C 4.8405813,8.3290013 6.4384235,8.0155936 7.7578125,8.7773438 L 8.3359375,9.109375 A 11,11 0 0 1 13,6.4199219 V 5.75 C 13,4.2265 14.070791,3 15.400391,3 h 1.199218 C 17.929209,3 19,4.2265 19,5.75 v 0.6777344 a 11,11 0 0 1 4.654297,2.6894531 l 0.587891,-0.3398437 c 1.319388,-0.7617503 2.917231,-0.4483429 3.582031,0.703125 l 0.599609,1.0390622 c 0.108294,0.187572 0.173935,0.3867 0.220703,0.589844 0.117767,-0.540575 0.06208,-1.100048 -0.220703,-1.5898438 L 27.824219,8.4804688 C 27.159419,7.3290009 25.561576,7.0155935 24.242188,7.7773438 L 23.654297,8.1171875 A 11,11 0 0 0 19,5.4277344 V 4.75 C 19,3.2265 17.929209,2 16.599609,2 Z M 5.164063,14.207031 A 11,11 0 0 0 5.0000005,16 11,11 0 0 0 5.0214849,16.417969 11,11 0 0 1 5.3476567,14.3125 Z m 21.669922,0.002 -0.177734,0.101563 A 11,11 0 0 1 26.978517,16.582031 11,11 0 0 0 27.000001,16 11,11 0 0 0 26.833985,14.208984 Z M 5.166017,18.791016 4.7578139,19.027344 C 3.6533497,19.665006 3.1151364,20.846706 3.3554702,21.890625 3.5145631,21.160354 3.9996479,20.465071 4.7578139,20.027344 L 5.3437514,19.689453 A 11,11 0 0 1 5.166017,18.791016 Z m 21.669922,0.002 A 11,11 0 0 1 26.652345,19.6875 l 0.589844,0.339844 c 0.758165,0.437727 1.24325,1.13301 1.402343,1.863281 0.240334,-1.043919 -0.29788,-2.225619 -1.402343,-2.863281 z"/>
 <path style="opacity:0.2" d="M 15.999999,9 A 8.0000005,8.0000005 0 0 0 8,17 a 8.0000005,8.0000005 0 0 0 7.999999,8 8.0000005,8.0000005 0 0 0 5.642578,-2.337891 l -2.11914,-2.11914 A 5,5 0 0 1 15.999999,22 5,5 0 0 1 11,17 a 5,5 0 0 1 4.999999,-5 5,5 0 0 1 3.542969,1.476562 l 2.11914,-2.11914 A 8.0000005,8.0000005 0 0 0 15.999999,9 Z"/>
 <path style="fill:#f4f4f7" d="M 15.999999,8 A 8.0000005,8.0000005 0 0 0 8,16 a 8.0000005,8.0000005 0 0 0 7.999999,8 8.0000005,8.0000005 0 0 0 5.642578,-2.337891 l -2.11914,-2.11914 A 5,5 0 0 1 15.999999,21 5,5 0 0 1 11,16 a 5,5 0 0 1 4.999999,-5 5,5 0 0 1 3.542969,1.476562 l 2.11914,-2.11914 A 8.0000005,8.0000005 0 0 0 15.999999,8 Z"/>
</svg>

<svg xmlns="http://www.w3.org/2000/svg" width="32" height="32" version="1"><path style="opacity:.2" d="M15.4 3C14.07 3 13 4.226 13 5.75v.67a11 11 0 0 0-4.664 2.69l-.578-.333c-1.32-.761-2.917-.448-3.582.703l-.6 1.04c-.665 1.151-.138 2.69 1.182 3.453l.59.34A11 11 0 0 0 5 17a11 11 0 0 0 .344 2.69l-.586.337c-1.32.762-1.847 2.302-1.182 3.453l.6 1.04c.665 1.151 2.262 1.464 3.582.703l.588-.34A10.997 10.997 0 0 0 13 27.573v.677c0 1.524 1.07 2.75 2.4 2.75h1.2c1.33 0 2.4-1.227 2.4-2.75v-.68a10.999 10.999 0 0 0 4.664-2.68l.578.333c1.32.761 2.917.448 3.582-.703l.6-1.04c.665-1.151.138-2.69-1.182-3.453l-.59-.34A11 11 0 0 0 27 17a10.998 10.998 0 0 0-.344-2.69l.586-.337c1.32-.762 1.847-2.302 1.182-3.453l-.6-1.04c-.665-1.151-2.262-1.464-3.582-.703l-.588.34A11 11 0 0 0 19 6.427V5.75C19 4.226 17.93 3 16.6 3z"/><path style="fill:#36c9cc" d="M15.4 2C14.07 2 13 3.227 13 4.75v.67a11 11 0 0 0-4.664 2.69l-.578-.333c-1.32-.761-2.917-.448-3.582.703l-.6 1.04c-.665 1.151-.138 2.69 1.182 3.453l.59.34A11 11 0 0 0 5 16a11 11 0 0 0 .344 2.69l-.586.337c-1.32.762-1.847 2.302-1.182 3.453l.6 1.04c.665 1.151 2.262 1.464 3.582.703l.588-.34A11 11 0 0 0 13 26.574v.676c0 1.524 1.07 2.75 2.4 2.75h1.2c1.33 0 2.4-1.227 2.4-2.75v-.69a11 11 0 0 0 4.664-2.67l.578.333c1.32.761 2.917.448 3.582-.703l.6-1.04c.665-1.151.138-2.69-1.182-3.453l-.59-.34A11 11 0 0 0 27 16a11 11 0 0 0-.344-2.69l.586-.337c1.32-.762 1.847-2.302 1.182-3.453l-.6-1.04c-.665-1.151-2.262-1.464-3.582-.703l-.588.34A11 11 0 0 0 19 5.427V4.75C19 3.227 17.93 2 16.6 2z"/><path style="opacity:.2;fill:#f4f4f7" d="M15.4 2C14.07 2 13 3.227 13 4.75v.67a11 11 0 0 0-4.664 2.69l-.578-.333c-1.32-.761-2.917-.448-3.582.703l-.6 1.04c-.283.49-.338 1.049-.22 1.59.046-.204.112-.403.22-.59l.6-1.04c.665-1.151 2.262-1.464 3.582-.703l.578.332A11 11 0 0 1 13 6.42V5.75C13 4.226 14.07 3 15.4 3h1.2C17.93 3 19 4.226 19 5.75v.678a11 11 0 0 1 4.654 2.69l.588-.34c1.32-.762 2.917-.449 3.582.702l.6 1.04c.108.187.174.386.22.59.118-.541.063-1.1-.22-1.59l-.6-1.04c-.665-1.151-2.262-1.464-3.582-.703l-.588.34A11 11 0 0 0 19 5.427V4.75C19 3.227 17.93 2 16.6 2zM5.164 14.207A11 11 0 0 0 5 16a11 11 0 0 0 .021.418 11 11 0 0 1 .327-2.105zm21.67.002-.178.102a11 11 0 0 1 .323 2.271A11 11 0 0 0 27 16a11 11 0 0 0-.166-1.791zM5.166 18.791l-.408.236c-1.105.638-1.643 1.82-1.403 2.864.16-.73.645-1.426 1.403-1.864l.586-.338a11 11 0 0 1-.178-.898zm21.67.002a11 11 0 0 1-.184.895l.59.34c.758.437 1.243 1.132 1.403 1.863.24-1.044-.298-2.226-1.403-2.864z"/><path style="opacity:.2" d="M16 9a8 8 0 0 0-8 8 8 8 0 0 0 8 8 8 8 0 0 0 5.643-2.338l-2.12-2.119A5 5 0 0 1 16 22a5 5 0 0 1-5-5 5 5 0 0 1 5-5 5 5 0 0 1 3.543 1.477l2.12-2.12A8 8 0 0 0 16 9z"/><path style="fill:#f4f4f7" d="M16 8a8 8 0 0 0-8 8 8 8 0 0 0 8 8 8 8 0 0 0 5.643-2.338l-2.12-2.119A5 5 0 0 1 16 21a5 5 0 0 1-5-5 5 5 0 0 1 5-5 5 5 0 0 1 3.543 1.477l2.12-2.12A8 8 0 0 0 16 8z"/></svg>
